X:1
T:Brudmarsch efter Majström
T:Brudmarsch efter Majström
T:Per Majström 1816-1904
C:Per Majström 1816-1904
%%score 1 2
L:1/8
M:2/4
K:C
V:1 treble 
V:2 treble 
V:1
 E | A>B A/^G/A/B/ | cB A^G | A2 A>A | A3 c | e>^f e/^d/e/f/ | g^f e^d | e2 e>g | e3 :: e | %10
 a>b a/^g/a/b/ | a=g fd | g>a g/^f/g/a/ | g=f ed | e>d c/B/c/d/ | c/B/A/^G/ A/B/c/d/ | %16
 ee E/^G/B/G/ | A2 e>^c | A3 :| B/d/ | c>d c/B/c/d/ | cB Ac | B>c B/A/B/c/ | B^G AB | %24
 A^G/A/ BA/B/ | cB/c/ dc/d/ | e>f e/d/e/f/ | e3 B/d/ | c>d c/B/c/d/ | cB Ac | B>c B/A/B/c/ | %31
 B^G AB | A^G/A/ BA/B/ | cB/c/ dc/d/ | e>f e/d/e/f/ | e3 |: e | a>b a/^g/a/b/ | a=g fd | %39
 g>a g/^f/g/a/ | g=f ed | e>d c/B/c/d/ | c/B/A/^G/ A/B/c/d/ | ee E/^G/B/G/ | A2 e>^c | A3 :| %46
V:2
 E | C>D C/B,/C/D/ | ED CB, | C2 C>C | C3 E | G>A G/^F/G/A/ | BA G^F | G2 G>B | G3 :: c | %10
 f>g f/e/f/g/ | fe dB | e>f e/d/e/f/ | ed cB | c>B A/^G/A/B/ | A/E/C/B,/ C/D/E/^F/ | ^GG B,D/B,/ | %17
 ^C2 A>E | ^C3 :| ^G/B/ | A>B A/^G/A/B/ | A^G ^FA | ^G>A G/^F/G/A/ | ^GB, ED | CB,/C/ DC/D/ | %25
 ED/E/ ^FE/F/ | ^G>A G/^F/G/A/ | ^G3 G/B/ | A>B A/^G/A/B/ | A^G ^FA | ^G>A G/^F/G/A/ | ^GB, ED | %32
 CB,/C/ DF/G/ | EG/A/ BA/B/ | c>d c/B/c/d/ | c3 |: c | f>g f/e/f/g/ | fe dB | e>f e/d/e/f/ | %40
 ed cB | c>B A/^G/A/B/ | A/E/C/B,/ C/D/E/^F/ | ^GG B,D/B,/ | ^C2 A>E | ^C3 :| %46

